src/assets/hero-line.svg

<svg fill="none" height="365" viewBox="0 0 1440 365" width="1440" xmlns="http://www.w3.org/2000/svg"><path d="m0 164.724c162.103-98.282 447.959-238.6395 486-115.6399 43.044 139.1749-393.2064 427.9999-346.5 266.9999 42.5-146.5 270.29-100.629 283-91 16.5 12.5-25.5 101.5 63.5 101.5s179.5-382.4998 309.5-294.4998c130 87.9998 131.5 273.4998 303.5 283.9998s232-271.9998 194.5-283.9998-150.26 212.7678 44 264.4998c48.5 12.916 77 16.154 102.5 16.154" stroke="#faf7f5"/></svg>

<svg width="1440" height="365" viewBox="0 0 1440 365" fill="none" xmlns="http://www.w3.org/2000/svg">
<path d="M0 164.724C162.103 66.442 447.959 -73.9155 486 49.0841C529.044 188.259 92.7936 477.084 139.5 316.084C182 169.584 409.79 215.455 422.5 225.084C439 237.584 397 326.584 486 326.584C575 326.584 665.5 -55.9158 795.5 32.0842C925.5 120.084 927 305.584 1099 316.084C1271 326.584 1331 44.0842 1293.5 32.0842C1256 20.0842 1143.24 244.852 1337.5 296.584C1386 309.5 1414.5 312.738 1440 312.738" stroke="#FAF7F5"/>
</svg>
